packages/icons/svg/24/Archive.svg

<svg width="24" height="24" viewBox="0 0 24 24" fill="none" xmlns="http://www.w3.org/2000/svg">
<path d="M3 5.5C3 5.03406 3 4.80109 3.07612 4.61732C3.17761 4.37229 3.37229 4.17761 3.61732 4.07612C3.80109 4 4.03406 4 4.5 4H19.5C19.9659 4 20.1989 4 20.3827 4.07612C20.6277 4.17761 20.8224 4.37229 20.9239 4.61732C21 4.80109 21 5.03406 21 5.5C21 5.96594 21 6.19891 20.9239 6.38268C20.8224 6.62771 20.6277 6.82239 20.3827 6.92388C20.1989 7 19.9659 7 19.5 7H4.5C4.03406 7 3.80109 7 3.61732 6.92388C3.37229 6.82239 3.17761 6.62771 3.07612 6.38268C3 6.19891 3 5.96594 3 5.5Z" fill="#858585"/>
<path fill-rule="evenodd" clip-rule="evenodd" d="M4 9.6C4 9.03995 4 8.75992 4.10899 8.54601C4.20487 8.35785 4.35785 8.20487 4.54601 8.10899C4.75992 8 5.03995 8 5.6 8H18.4C18.9601 8 19.2401 8 19.454 8.10899C19.6422 8.20487 19.7951 8.35785 19.891 8.54601C20 8.75992 20 9.03995 20 9.6V15.2C20 16.8802 20 17.7202 19.673 18.362C19.3854 18.9265 18.9265 19.3854 18.362 19.673C17.7202 20 16.8802 20 15.2 20H8.8C7.11984 20 6.27976 20 5.63803 19.673C5.07354 19.3854 4.6146 18.9265 4.32698 18.362C4 17.7202 4 16.8802 4 15.2V9.6ZM10 10C9.44772 10 9 10.4477 9 11C9 11.5523 9.44772 12 10 12H14C14.5523 12 15 11.5523 15 11C15 10.4477 14.5523 10 14 10H10Z" fill="#858585"/>
</svg>

<svg width="24" height="24" fill="none" xmlns="http://www.w3.org/2000/svg" viewBox="0 0 24 24"><path d="M3 5.5c0-.466 0-.699.076-.883a1 1 0 01.541-.54C3.801 4 4.034 4 4.5 4h15c.466 0 .699 0 .883.076a1 1 0 01.54.541c.077.184.077.417.077.883s0 .699-.076.883a1 1 0 01-.541.54C20.199 7 19.966 7 19.5 7h-15c-.466 0-.699 0-.883-.076a1 1 0 01-.54-.541C3 6.199 3 5.966 3 5.5z" fill="currentColor"></path><path fill-rule="evenodd" clip-rule="evenodd" d="M4 9.6c0-.56 0-.84.109-1.054a1 1 0 01.437-.437C4.76 8 5.04 8 5.6 8h12.8c.56 0 .84 0 1.054.109a1 1 0 01.437.437C20 8.76 20 9.04 20 9.6v5.6c0 1.68 0 2.52-.327 3.162a3 3 0 01-1.311 1.311C17.72 20 16.88 20 15.2 20H8.8c-1.68 0-2.52 0-3.162-.327a3 3 0 01-1.311-1.311C4 17.72 4 16.88 4 15.2V9.6zm6 .4a1 1 0 100 2h4a1 1 0 100-2h-4z" fill="currentColor"></path></svg>
